src/components/assets/about1.svg

<svg fill="none" height="319" viewBox="0 0 422 319" width="422" xmlns="http://www.w3.org/2000/svg" xmlns:xlink="http://www.w3.org/1999/xlink"><linearGradient id="a"><stop offset="0" stop-color="#ffc58f"/><stop offset="1" stop-color="#ff7c7c"/></linearGradient><linearGradient id="b" gradientUnits="userSpaceOnUse" x1="194.21" x2="139.954" xlink:href="#a" y1="91.4204" y2="180.965"/><linearGradient id="c" gradientUnits="userSpaceOnUse" x1="71.2244" x2="206.102" xlink:href="#a" y1="239.682" y2="56.844"/><linearGradient id="d" gradientUnits="userSpaceOnUse" x1="81" x2="303.711" xlink:href="#a" y1="206" y2="53.2854"/><linearGradient id="e" gradientUnits="userSpaceOnUse" x1="34" x2="284.352" xlink:href="#a" y1="200" y2="219.747"/><linearGradient id="f" gradientUnits="userSpaceOnUse" x1="58.2786" x2="247.686" y1="182.59" y2="-28.6589"><stop offset="0" stop-color="#ffc58f" stop-opacity="0"/><stop offset="1" stop-color="#ff7c7c" stop-opacity=".84"/></linearGradient><linearGradient id="g" gradientUnits="userSpaceOnUse" x1="81.088" x2="348.643" y1="222.298" y2="-285.737"><stop offset="0" stop-color="#ffc58f" stop-opacity=".78"/><stop offset="1" stop-color="#ff7c7c" stop-opacity="0"/></linearGradient><linearGradient id="h" gradientUnits="userSpaceOnUse" x1="41" x2="451" y1="-39" y2="394"><stop offset="0" stop-color="#ff8989"/><stop offset="1" stop-color="#ff8989" stop-opacity="0"/></linearGradient><path d="m83 184.5-2.5285 3.09-3.3436-23.118 24.3471-29.819 27.489-33.772 31.022-37.3057h1.964l102.493-1.178 30.237 37.3059-10.21 14.1368-3.534-4.319.393-13.352-20.42-25.5252-96.603-1.178-30.63 38.8762-23.169 28.667-29.507 35.491z" fill="url(#b)" opacity=".5"/><path d="m185.271 119.47-50.858 66.579-1.13-1.131-1.571-1.952-3.534-5.902-2.356-4.712 4.584-6.283 54.865-69.7169 96.058-.5758-.813 23.6937z" fill="url(#c)" fill-opacity=".5"/><g fill="url(#d)" opacity=".2"><path d="m137.603 191.594-1.033-15.717 21.846 30.639h105.242l45.945-68.329 18.849-28.274 7.547-9.862-2.466 18.186-63.985 96.133h-117.416z"/><path d="m84.4786 194.987-3.3906-22.501 12.9257 19.108 34.1643 56.155 164.932-1.178 23.169-36.128 29.844-47.123 18.541-28.747-4.007 22.193-69.661 111.581h-161.515z"/></g><g fill="url(#d)" opacity=".2"><path d="m137.603 191.594-1.033-15.717 21.846 30.639h105.242l45.945-68.329 18.849-28.274 7.547-9.862-2.466 18.186-63.985 96.133h-117.416z"/><path d="m84.4786 194.987-3.3906-22.501 12.9257 19.108 34.1643 56.155 164.932-1.178 23.169-36.128 29.844-47.123 18.541-28.747-4.007 22.193-69.661 111.581h-161.515z"/></g><path d="m62.2856 158.307-4.007-22.501 18.8493 28.692 3.3436 23.4z" fill="url(#e)" opacity=".5"/><path d="m158.147 207.009-21.268-31.44 103.875-.925 53.016-74.9013-29.282-36.3717-104.184.9247-83.2231 101.4093-18.8023-29.899 82.9154-98.3268h143.021l51.784 62.2635-71.819 107.2663z" fill="url(#f)"/><path d="m158.545 206.259-20.262-29.953 102.478-.912.383-.004.222-.313 53.016-74.901.328-.4623-.356-.4413-29.282-36.3718-.228-.2828-.363.0032-104.183.9247-.351.0031-.222.2711-82.5634 100.6051-17.9564-28.554 82.3368-97.6418h142.321l51.2 61.5621-71.284 106.4677z" stroke="#ff8989" stroke-width="1.5"/><path d="m260.789 69.5357 20.96 26.5082-96.786 1.2329-58.564 75.2092 26.508 40.996h116.513l71.819-107.575 23.734 28.666-71.511 112.814-165.522.617-46.852-75.518 83.224-102.9503z" fill="url(#g)"/><g stroke-width="1.5"><path d="m260.426 70.2857 19.789 25.0277-95.261 1.2135-.361.0046-.221.2846-58.565 75.2089-.328.421.29.447 26.508 40.996.222.343h.408 116.513.401l.223-.334 71.259-106.737 22.745 27.471-70.999 112.007-164.693.613-46.3499-74.709 82.6639-102.2573z" stroke="#ff8989"/><path d="m421.25 159.5c0 43.758-23.462 83.429-61.503 112.185-38.041 28.757-90.629 46.565-148.747 46.565s-110.706-17.808-148.7473-46.565c-38.0411-28.756-61.5027-68.427-61.5027-112.185s23.4616-83.429 61.5027-112.1852c38.0413-28.7566 90.6293-46.5648 148.7473-46.5648s110.706 17.8082 148.747 46.5648c38.041 28.7562 61.503 68.4272 61.503 112.1852z" stroke="url(#h)"/></g></svg>

<svg width="422" height="319" viewBox="0 0 422 319" fill="none" xmlns="http://www.w3.org/2000/svg">
<path opacity="0.5" d="M83 184.5L80.4715 187.59L77.1279 164.472L101.475 134.653L128.964 100.881L159.986 63.5753L161.95 63.5753L264.443 62.3973L294.68 99.7032L284.47 113.84L280.936 109.521L281.329 96.169L260.909 70.6438L164.306 69.4658L133.676 108.342L110.507 137.009L81 172.5L83 184.5Z" fill="url(#paint0_linear)"/>
<path d="M185.271 119.47L134.413 186.049L133.283 184.918L131.712 182.966L128.178 177.064L125.822 172.352L130.406 166.069L185.271 96.3521L281.329 95.7763L280.516 119.47H185.271Z" fill="url(#paint1_linear)" fill-opacity="0.5"/>
<g opacity="0.2">
<path d="M137.603 191.594L136.57 175.877L158.416 206.516H263.658L309.603 138.187L328.452 109.913L335.999 100.051L333.533 118.237L269.548 214.37H152.132L137.603 191.594Z" fill="url(#paint2_linear)"/>
<path d="M84.4786 194.987L81.088 172.486L94.0137 191.594L128.178 247.749L293.11 246.571L316.279 210.443L346.123 163.32L364.664 134.573L360.657 156.766L290.996 268.347H129.481L84.4786 194.987Z" fill="url(#paint3_linear)"/>
</g>
<g opacity="0.2">
<path d="M137.603 191.594L136.57 175.877L158.416 206.516H263.658L309.603 138.187L328.452 109.913L335.999 100.051L333.533 118.237L269.548 214.37H152.132L137.603 191.594Z" fill="url(#paint4_linear)"/>
<path d="M84.4786 194.987L81.088 172.486L94.0137 191.594L128.178 247.749L293.11 246.571L316.279 210.443L346.123 163.32L364.664 134.573L360.657 156.766L290.996 268.347H129.481L84.4786 194.987Z" fill="url(#paint5_linear)"/>
</g>
<path opacity="0.5" d="M62.2856 158.307L58.2786 135.806L77.1279 164.498L80.4715 187.898L62.2856 158.307Z" fill="url(#paint6_linear)"/>
<path d="M158.147 207.009L136.879 175.569L240.754 174.644L293.77 99.7427L264.488 63.371L160.304 64.2957L77.0809 165.705L58.2786 135.806L141.194 37.4792H284.215L335.999 99.7427L264.18 207.009H158.147Z" fill="url(#paint7_linear)"/>
<path d="M158.545 206.259L138.283 176.306L240.761 175.394L241.144 175.39L241.366 175.077L294.382 100.176L294.71 99.7137L294.354 99.2724L265.072 62.9006L264.844 62.6178L264.481 62.621L160.298 63.5457L159.947 63.5488L159.725 63.8199L77.1616 164.425L59.2052 135.871L141.542 38.2292H283.863L335.063 99.7913L263.779 206.259H158.545Z" stroke="#FF8989" stroke-width="1.5"/>
<path d="M260.789 69.5357L281.749 96.0439L184.963 97.2768L126.399 172.486L152.907 213.482H269.42L341.239 105.907L364.973 134.573L293.462 247.387L127.94 248.004L81.088 172.486L164.312 69.5357H260.789Z" fill="url(#paint8_linear)"/>
<path d="M260.426 70.2857L280.215 95.3134L184.954 96.5269L184.593 96.5315L184.372 96.8161L125.807 172.025L125.479 172.446L125.769 172.893L152.277 213.889L152.499 214.232H152.907H269.42H269.821L270.044 213.898L341.303 107.161L364.048 134.632L293.049 246.639L128.356 247.252L82.0061 172.543L164.67 70.2857H260.426Z" stroke="#FF8989" stroke-width="1.5"/>
<path d="M421.25 159.5C421.25 203.258 397.788 242.929 359.747 271.685C321.706 300.442 269.118 318.25 211 318.25C152.882 318.25 100.294 300.442 62.2527 271.685C24.2116 242.929 0.75 203.258 0.75 159.5C0.75 115.742 24.2116 76.071 62.2527 47.3148C100.294 18.5582 152.882 0.75 211 0.75C269.118 0.75 321.706 18.5582 359.747 47.3148C397.788 76.071 421.25 115.742 421.25 159.5Z" stroke="url(#paint9_linear)" stroke-width="1.5"/>
<defs>
<linearGradient id="paint0_linear" x1="194.21" y1="91.4204" x2="139.954" y2="180.965" gradientUnits="userSpaceOnUse">
<stop stop-color="#FFC58F"/>
<stop offset="1" stop-color="#FF7C7C"/>
</linearGradient>
<linearGradient id="paint1_linear" x1="71.2244" y1="239.682" x2="206.102" y2="56.844" gradientUnits="userSpaceOnUse">
<stop stop-color="#FFC58F"/>
<stop offset="1" stop-color="#FF7C7C"/>
</linearGradient>
<linearGradient id="paint2_linear" x1="81" y1="206" x2="303.711" y2="53.2854" gradientUnits="userSpaceOnUse">
<stop stop-color="#FFC58F"/>
<stop offset="1" stop-color="#FF7C7C"/>
</linearGradient>
<linearGradient id="paint3_linear" x1="81" y1="206" x2="303.711" y2="53.2854" gradientUnits="userSpaceOnUse">
<stop stop-color="#FFC58F"/>
<stop offset="1" stop-color="#FF7C7C"/>
</linearGradient>
<linearGradient id="paint4_linear" x1="81" y1="206" x2="303.711" y2="53.2854" gradientUnits="userSpaceOnUse">
<stop stop-color="#FFC58F"/>
<stop offset="1" stop-color="#FF7C7C"/>
</linearGradient>
<linearGradient id="paint5_linear" x1="81" y1="206" x2="303.711" y2="53.2854" gradientUnits="userSpaceOnUse">
<stop stop-color="#FFC58F"/>
<stop offset="1" stop-color="#FF7C7C"/>
</linearGradient>
<linearGradient id="paint6_linear" x1="34" y1="200" x2="284.352" y2="219.747" gradientUnits="userSpaceOnUse">
<stop stop-color="#FFC58F"/>
<stop offset="1" stop-color="#FF7C7C"/>
</linearGradient>
<linearGradient id="paint7_linear" x1="58.2786" y1="182.59" x2="247.686" y2="-28.6589" gradientUnits="userSpaceOnUse">
<stop stop-color="#FFC58F" stop-opacity="0"/>
<stop offset="1" stop-color="#FF7C7C" stop-opacity="0.84"/>
</linearGradient>
<linearGradient id="paint8_linear" x1="81.088" y1="222.298" x2="348.643" y2="-285.737" gradientUnits="userSpaceOnUse">
<stop stop-color="#FFC58F" stop-opacity="0.78"/>
<stop offset="1" stop-color="#FF7C7C" stop-opacity="0"/>
</linearGradient>
<linearGradient id="paint9_linear" x1="41" y1="-39" x2="451" y2="394" gradientUnits="userSpaceOnUse">
<stop stop-color="#FF8989"/>
<stop offset="1" stop-color="#FF8989" stop-opacity="0"/>
</linearGradient>
</defs>
</svg>
